X: 32
T:Jenny Dang the Weaver
M:4/4
L:1/8
R:Reel
K:D
fe|"D"dA A/A/A AFAB|"D"dA A/A/A f2ef|"G"dB B/B/B "D"BABd
|1 "Em"ABde "A"faef:|2 "Em"ABde "A"f2ef||!
"D"d2 fe "A"efge|"D"d2fd "A"e2 cA|"D"d2 fd "Em"efge|"D"aA A/A/A "A"f2ef|
